icons/MaterialEdit.svg

<svg width="25" height="24" viewBox="0 0 25 24" fill="none" xmlns="http://www.w3.org/2000/svg">
<path d="M4.19101 16.666V20.001H7.52401L17.354 10.171L14.021 6.836L4.19101 16.666ZM19.931 7.591C20.0134 7.50879 20.0788 7.41114 20.1234 7.30364C20.168 7.19613 20.1909 7.08089 20.1909 6.9645C20.1909 6.84811 20.168 6.73286 20.1234 6.62536C20.0788 6.51786 20.0134 6.42021 19.931 6.338L17.851 4.258C17.7688 4.17561 17.6712 4.11024 17.5636 4.06564C17.4561 4.02104 17.3409 3.99808 17.2245 3.99808C17.1081 3.99808 16.9929 4.02104 16.8854 4.06564C16.7779 4.11024 16.6802 4.17561 16.598 4.258L14.972 5.885L18.305 9.218L19.931 7.591Z" fill="black"/>
</svg>

<svg xmlns="http://www.w3.org/2000/svg" viewBox="0 0 25 24">
  <path d="M4.191 16.666v3.335h3.333l9.83-9.83-3.333-3.335-9.83 9.83zm15.74-9.075a.885.885 0 000-1.253l-2.08-2.08a.884.884 0 00-1.253 0l-1.626 1.627 3.333 3.333 1.626-1.627z"/>
</svg>
